public/assets/freshchat.svg

<svg width="142" height="50" viewBox="0 0 142 50" fill="none" xmlns="http://www.w3.org/2000/svg">
<rect x="0.5" y="0.5" width="141" height="49" rx="6.5" fill="white" stroke="url(#paint0_linear_2329_167)"/>
<rect x="13" y="5" width="40" height="40" rx="8" fill="white"/>
<path d="M32.9561 12.5587H42.3038C42.7171 12.5551 43.127 12.6339 43.5095 12.7904C43.8921 12.9469 44.2396 13.178 44.5319 13.4703C44.8241 13.7625 45.0552 14.1101 45.2118 14.4926C45.3683 14.8751 45.447 15.285 45.4435 15.6983V25.0456C45.4426 28.3346 44.1357 31.4885 41.81 33.8142C39.4843 36.1398 36.3303 37.4467 33.0412 37.4475H32.9707C31.3409 37.4493 29.7268 37.13 28.2205 36.5077C26.7142 35.8855 25.3453 34.9725 24.1919 33.8211C23.0387 32.6695 22.1238 31.3018 21.4997 29.7962C20.8756 28.2907 20.5545 26.6769 20.5547 25.0472C20.5547 18.1746 26.098 12.6315 32.9569 12.561L32.9561 12.5587Z" fill="#25C16F"/>
<path d="M32.9567 18.1016C31.4453 18.1016 29.9957 18.702 28.927 19.7707C27.8582 20.8394 27.2578 22.2889 27.2578 23.8003V27.6751C27.2691 28.1742 27.4724 28.6497 27.8255 29.0027C28.1785 29.3557 28.654 29.559 29.1531 29.5703H30.7655V25.1236H28.588V23.8793C28.7207 21.5355 30.6597 19.7032 33.0073 19.7032C35.355 19.7032 37.3009 21.5432 37.4266 23.8793V25.1236H35.2208V29.5703H36.6776V29.6409C36.6702 30.1036 36.4832 30.5454 36.1559 30.8726C35.8286 31.1999 35.3869 31.387 34.9241 31.3943H33.1837C33.0426 31.3943 32.887 31.4648 32.887 31.6066C32.8946 31.76 33.0227 31.8965 33.1837 31.9034H34.9371C35.536 31.8995 36.1093 31.6599 36.5328 31.2365C36.9563 30.813 37.1959 30.2397 37.1997 29.6409V29.4998C37.6155 29.4049 37.9865 29.171 38.2513 28.8367C38.5162 28.5024 38.6591 28.0878 38.6564 27.6613V23.8716C38.7354 20.6607 36.1899 18.1016 32.9567 18.1016Z" fill="white"/>
<path d="M57.98 30V19.92H63.86V21.166H59.226V24.337H63.02V25.583H59.226V30H57.98ZM65.1167 30V22.44H66.2297V24.267L66.0477 24.029C66.1364 23.7957 66.2507 23.581 66.3907 23.385C66.5354 23.189 66.6964 23.028 66.8737 22.902C67.0697 22.7433 67.2914 22.622 67.5387 22.538C67.7861 22.454 68.0381 22.405 68.2947 22.391C68.5514 22.3723 68.7917 22.3887 69.0157 22.44V23.609C68.7544 23.539 68.4674 23.5203 68.1547 23.553C67.8421 23.5857 67.5527 23.7 67.2867 23.896C67.0441 24.0687 66.8551 24.2787 66.7197 24.526C66.5891 24.7733 66.4981 25.0417 66.4467 25.331C66.3954 25.6157 66.3697 25.9073 66.3697 26.206V30H65.1167ZM73.4787 30.21C72.7367 30.21 72.088 30.0467 71.5327 29.72C70.982 29.3887 70.5527 28.929 70.2447 28.341C69.9367 27.7483 69.7827 27.0577 69.7827 26.269C69.7827 25.443 69.9343 24.729 70.2377 24.127C70.541 23.5203 70.9633 23.0537 71.5047 22.727C72.0507 22.3957 72.69 22.23 73.4227 22.23C74.1833 22.23 74.8297 22.405 75.3617 22.755C75.8983 23.105 76.2997 23.6043 76.5657 24.253C76.8363 24.9017 76.953 25.674 76.9157 26.57H75.6557V26.122C75.6417 25.1933 75.4527 24.5003 75.0887 24.043C74.7247 23.581 74.1833 23.35 73.4647 23.35C72.6947 23.35 72.109 23.5973 71.7077 24.092C71.3063 24.5867 71.1057 25.296 71.1057 26.22C71.1057 27.1113 71.3063 27.802 71.7077 28.292C72.109 28.782 72.6807 29.027 73.4227 29.027C73.922 29.027 74.356 28.9127 74.7247 28.684C75.0933 28.4553 75.3827 28.1263 75.5927 27.697L76.7897 28.11C76.4957 28.7773 76.0523 29.2953 75.4597 29.664C74.8717 30.028 74.2113 30.21 73.4787 30.21ZM70.6857 26.57V25.569H76.2717V26.57H70.6857ZM81.3301 30.203C80.4295 30.203 79.6898 30.007 79.1111 29.615C78.5371 29.2183 78.1848 28.6653 78.0541 27.956L79.3281 27.753C79.4308 28.1637 79.6665 28.4903 80.0351 28.733C80.4038 28.971 80.8611 29.09 81.4071 29.09C81.9251 29.09 82.3311 28.9827 82.6251 28.768C82.9191 28.5533 83.0661 28.2617 83.0661 27.893C83.0661 27.6783 83.0171 27.5057 82.9191 27.375C82.8211 27.2397 82.6181 27.1137 82.3101 26.997C82.0068 26.8803 81.5471 26.7403 80.9311 26.577C80.2638 26.3997 79.7388 26.2153 79.3561 26.024C78.9735 25.8327 78.7005 25.611 78.5371 25.359C78.3738 25.107 78.2921 24.8013 78.2921 24.442C78.2921 23.9987 78.4135 23.6113 78.6561 23.28C78.8988 22.944 79.2371 22.685 79.6711 22.503C80.1098 22.321 80.6185 22.23 81.1971 22.23C81.7711 22.23 82.2845 22.321 82.7371 22.503C83.1898 22.685 83.5538 22.944 83.8291 23.28C84.1091 23.6113 84.2748 23.9987 84.3261 24.442L83.0521 24.673C82.9915 24.267 82.7955 23.9473 82.4641 23.714C82.1375 23.4807 81.7151 23.357 81.1971 23.343C80.7071 23.3243 80.3081 23.4107 80.0001 23.602C79.6968 23.7933 79.5451 24.0523 79.5451 24.379C79.5451 24.561 79.6011 24.7173 79.7131 24.848C79.8298 24.9787 80.0421 25.1023 80.3501 25.219C80.6628 25.3357 81.1155 25.4687 81.7081 25.618C82.3755 25.786 82.9005 25.9703 83.2831 26.171C83.6705 26.367 83.9458 26.6003 84.1091 26.871C84.2725 27.137 84.3541 27.466 84.3541 27.858C84.3541 28.586 84.0858 29.16 83.5491 29.58C83.0125 29.9953 82.2728 30.203 81.3301 30.203ZM91.281 30V26.213C91.281 25.8537 91.2483 25.5083 91.183 25.177C91.1223 24.8457 91.0126 24.5493 90.854 24.288C90.7 24.022 90.49 23.812 90.224 23.658C89.9626 23.504 89.6313 23.427 89.23 23.427C88.9173 23.427 88.6326 23.4807 88.376 23.588C88.124 23.6907 87.907 23.8493 87.725 24.064C87.543 24.2787 87.4006 24.5493 87.298 24.876C87.2 25.198 87.151 25.5783 87.151 26.017L86.332 25.765C86.332 25.0323 86.4626 24.4047 86.724 23.882C86.99 23.3547 87.361 22.951 87.837 22.671C88.3176 22.3863 88.8823 22.244 89.531 22.244C90.021 22.244 90.4386 22.321 90.784 22.475C91.1293 22.629 91.4163 22.8343 91.645 23.091C91.8736 23.343 92.0533 23.6277 92.184 23.945C92.3146 24.2577 92.4056 24.5773 92.457 24.904C92.513 25.226 92.541 25.5317 92.541 25.821V30H91.281ZM85.891 30V19.92H87.011V25.485H87.151V30H85.891ZM97.5459 30.21C96.7805 30.21 96.1295 30.0397 95.5929 29.699C95.0609 29.3537 94.6549 28.88 94.3749 28.278C94.0949 27.676 93.9502 26.99 93.9409 26.22C93.9502 25.4313 94.0972 24.7383 94.3819 24.141C94.6712 23.539 95.0842 23.07 95.6209 22.734C96.1575 22.398 96.8039 22.23 97.5599 22.23C98.3579 22.23 99.0439 22.426 99.6179 22.818C100.197 23.21 100.584 23.7467 100.78 24.428L99.5479 24.799C99.3892 24.3603 99.1302 24.0197 98.7709 23.777C98.4162 23.5343 98.0079 23.413 97.5459 23.413C97.0279 23.413 96.6009 23.5343 96.2649 23.777C95.9289 24.015 95.6792 24.3463 95.5159 24.771C95.3525 25.191 95.2685 25.674 95.2639 26.22C95.2732 27.06 95.4669 27.739 95.8449 28.257C96.2275 28.7703 96.7945 29.027 97.5459 29.027C98.0405 29.027 98.4512 28.915 98.7779 28.691C99.1045 28.4623 99.3519 28.1333 99.5199 27.704L100.78 28.033C100.519 28.7377 100.11 29.2767 99.5549 29.65C98.9995 30.0233 98.3299 30.21 97.5459 30.21ZM107.592 30V26.213C107.592 25.8537 107.559 25.5083 107.494 25.177C107.433 24.8457 107.323 24.5493 107.165 24.288C107.011 24.022 106.801 23.812 106.535 23.658C106.273 23.504 105.942 23.427 105.541 23.427C105.228 23.427 104.943 23.4807 104.687 23.588C104.435 23.6907 104.218 23.8493 104.036 24.064C103.854 24.2787 103.711 24.5493 103.609 24.876C103.511 25.198 103.462 25.5783 103.462 26.017L102.643 25.765C102.643 25.0323 102.773 24.4047 103.035 23.882C103.301 23.3547 103.672 22.951 104.148 22.671C104.628 22.3863 105.193 22.244 105.842 22.244C106.332 22.244 106.749 22.321 107.095 22.475C107.44 22.629 107.727 22.8343 107.956 23.091C108.184 23.343 108.364 23.6277 108.495 23.945C108.625 24.2577 108.716 24.5773 108.768 24.904C108.824 25.226 108.852 25.5317 108.852 25.821V30H107.592ZM102.202 30V19.92H103.322V25.485H103.462V30H102.202ZM112.82 30.21C112.256 30.21 111.782 30.1073 111.399 29.902C111.021 29.692 110.734 29.4167 110.538 29.076C110.347 28.7353 110.251 28.362 110.251 27.956C110.251 27.5593 110.326 27.2163 110.475 26.927C110.629 26.633 110.844 26.3903 111.119 26.199C111.395 26.003 111.724 25.849 112.106 25.737C112.466 25.639 112.867 25.555 113.31 25.485C113.758 25.4103 114.211 25.3427 114.668 25.282C115.126 25.2213 115.553 25.163 115.949 25.107L115.501 25.366C115.515 24.694 115.38 24.197 115.095 23.875C114.815 23.553 114.33 23.392 113.639 23.392C113.182 23.392 112.781 23.497 112.435 23.707C112.095 23.9123 111.854 24.2483 111.714 24.715L110.531 24.358C110.713 23.6953 111.066 23.175 111.588 22.797C112.111 22.419 112.799 22.23 113.653 22.23C114.339 22.23 114.927 22.3537 115.417 22.601C115.912 22.8437 116.267 23.2123 116.481 23.707C116.589 23.9403 116.656 24.1947 116.684 24.47C116.712 24.7407 116.726 25.0253 116.726 25.324V30H115.62V28.187L115.879 28.355C115.595 28.9663 115.196 29.4283 114.682 29.741C114.174 30.0537 113.553 30.21 112.82 30.21ZM113.009 29.167C113.457 29.167 113.845 29.0877 114.171 28.929C114.503 28.7657 114.769 28.5533 114.969 28.292C115.17 28.026 115.301 27.7367 115.361 27.424C115.431 27.1907 115.469 26.9317 115.473 26.647C115.483 26.3577 115.487 26.136 115.487 25.982L115.921 26.171C115.515 26.227 115.116 26.2807 114.724 26.332C114.332 26.3833 113.961 26.4393 113.611 26.5C113.261 26.556 112.946 26.6237 112.666 26.703C112.461 26.7683 112.267 26.8523 112.085 26.955C111.908 27.0577 111.763 27.1907 111.651 27.354C111.544 27.5127 111.49 27.711 111.49 27.949C111.49 28.1543 111.542 28.3503 111.644 28.537C111.752 28.7237 111.915 28.8753 112.134 28.992C112.358 29.1087 112.65 29.167 113.009 29.167ZM122.767 30C122.319 30.0887 121.876 30.1237 121.437 30.105C121.003 30.091 120.616 30.0047 120.275 29.846C119.935 29.6827 119.676 29.4307 119.498 29.09C119.349 28.7913 119.267 28.4903 119.253 28.187C119.244 27.879 119.239 27.5313 119.239 27.144V20.34H120.485V27.088C120.485 27.396 120.488 27.6597 120.492 27.879C120.502 28.0983 120.551 28.2873 120.639 28.446C120.807 28.7447 121.073 28.9197 121.437 28.971C121.806 29.0223 122.249 29.0083 122.767 28.929V30ZM117.706 23.469V22.44H122.767V23.469H117.706Z" fill="#475367"/>
<defs>
<linearGradient id="paint0_linear_2329_167" x1="71" y1="1" x2="71" y2="49" gradientUnits="userSpaceOnUse">
<stop stop-color="#E4E7EC"/>
<stop offset="1" stop-color="white"/>
</linearGradient>
</defs>
</svg>

<svg xmlns="http://www.w3.org/2000/svg" width="142" height="50" fill="none" xmlns:v="https://vecta.io/nano"><g fill="#fff"><rect x=".5" y=".5" width="141" height="49" rx="6.5" stroke="url(#A)"/><rect x="13" y="5" width="40" height="40" rx="8"/></g><path d="M32.956 12.559h9.348c.413-.004.823.075 1.206.232a3.11 3.11 0 0 1 1.022.68c.292.292.523.64.68 1.022s.235.792.232 1.206v9.347c-.001 3.289-1.308 6.443-3.633 8.769s-5.48 3.633-8.769 3.633h-.071c-1.63.002-3.244-.317-4.75-.94s-2.875-1.535-4.029-2.687-2.068-2.519-2.692-4.025-.945-3.119-.945-4.749c0-6.873 5.543-12.416 12.402-12.486l-.001-.002z" fill="#25c16f"/><path d="M32.957 18.102a5.7 5.7 0 0 0-5.699 5.699v3.875a1.94 1.94 0 0 0 1.895 1.895h1.612v-4.447h-2.177v-1.244c.133-2.344 2.072-4.176 4.419-4.176s4.294 1.84 4.419 4.176v1.244h-2.206v4.447h1.457v.071a1.78 1.78 0 0 1-1.753 1.753h-1.74c-.141 0-.297.07-.297.212.008.153.136.29.297.297h1.753a2.28 2.28 0 0 0 1.596-.667c.423-.424.663-.997.667-1.596V29.5c.416-.095.787-.329 1.052-.663s.408-.749.405-1.175v-3.79c.079-3.211-2.466-5.77-5.7-5.77z" fill="#fff"/><path d="M57.98 30V19.92h5.88v1.246h-4.634v3.171h3.794v1.246h-3.794V30H57.98zm7.137 0v-7.56h1.113v1.827l-.182-.238c.089-.233.203-.448.343-.644s.306-.357.483-.483a2.14 2.14 0 0 1 .665-.364 2.82 2.82 0 0 1 .756-.147c.257-.019.497-.002.721.049v1.169a2.36 2.36 0 0 0-.861-.056 1.75 1.75 0 0 0-.868.343 1.87 1.87 0 0 0-.567.63 2.74 2.74 0 0 0-.273.805c-.051.285-.077.576-.077.875V30h-1.253zm8.362.21c-.742 0-1.391-.163-1.946-.49a3.43 3.43 0 0 1-1.288-1.379c-.308-.593-.462-1.283-.462-2.072 0-.826.152-1.54.455-2.142s.726-1.073 1.267-1.4 1.185-.497 1.918-.497c.761 0 1.407.175 1.939.525s.938.849 1.204 1.498.387 1.421.35 2.317h-1.26v-.448c-.014-.929-.203-1.622-.567-2.079s-.905-.693-1.624-.693c-.77 0-1.356.247-1.757.742s-.602 1.204-.602 2.128c0 .891.201 1.582.602 2.072s.973.735 1.715.735c.499 0 .933-.114 1.302-.343s.658-.558.868-.987l1.197.413a3.39 3.39 0 0 1-1.33 1.554c-.588.364-1.248.546-1.981.546zm-2.793-3.64v-1.001h5.586v1.001h-5.586zm10.644 3.633c-.901 0-1.64-.196-2.219-.588a2.48 2.48 0 0 1-1.057-1.659l1.274-.203c.103.411.338.737.707.98s.826.357 1.372.357c.518 0 .924-.107 1.218-.322s.441-.506.441-.875c0-.215-.049-.387-.147-.518s-.301-.261-.609-.378-.763-.257-1.379-.42c-.667-.177-1.192-.362-1.575-.553s-.656-.413-.819-.665-.245-.558-.245-.917c0-.443.121-.831.364-1.162s.581-.595 1.015-.777.947-.273 1.526-.273 1.087.091 1.54.273.817.441 1.092.777a2.14 2.14 0 0 1 .497 1.162l-1.274.231c-.061-.406-.257-.726-.588-.959s-.749-.357-1.267-.371c-.49-.019-.889.068-1.197.259s-.455.45-.455.777c0 .182.056.338.168.469s.329.254.637.371.765.25 1.358.399c.667.168 1.192.352 1.575.553s.663.429.826.7.245.595.245.987c0 .728-.268 1.302-.805 1.722s-1.276.623-2.219.623zM91.281 30v-3.787c0-.359-.033-.705-.098-1.036a2.6 2.6 0 0 0-.329-.889 1.7 1.7 0 0 0-.63-.63c-.261-.154-.593-.231-.994-.231-.313 0-.597.054-.854.161a1.67 1.67 0 0 0-.651.476c-.182.215-.324.485-.427.812s-.147.702-.147 1.141l-.819-.252c0-.733.131-1.36.392-1.883a2.86 2.86 0 0 1 1.113-1.211c.481-.285 1.045-.427 1.694-.427.49 0 .908.077 1.253.231s.632.359.861.616a2.91 2.91 0 0 1 .539.854c.131.313.222.632.273.959a5.36 5.36 0 0 1 .084.917V30h-1.26zm-5.39 0V19.92h1.12v5.565h.14V30h-1.26zm11.655.21c-.765 0-1.416-.17-1.953-.511s-.938-.819-1.218-1.421-.425-1.288-.434-2.058c.009-.789.156-1.482.441-2.079s.702-1.071 1.239-1.407 1.183-.504 1.939-.504c.798 0 1.484.196 2.058.588.579.392.966.929 1.162 1.61l-1.232.371c-.159-.439-.418-.779-.777-1.022s-.763-.364-1.225-.364c-.518 0-.945.121-1.281.364s-.586.569-.749.994-.247.903-.252 1.449c.009.84.203 1.519.581 2.037s.95.77 1.701.77c.495 0 .905-.112 1.232-.336s.574-.558.742-.987l1.26.329c-.261.705-.67 1.244-1.225 1.617s-1.225.56-2.009.56zm10.046-.21v-3.787a5.37 5.37 0 0 0-.098-1.036 2.62 2.62 0 0 0-.329-.889 1.7 1.7 0 0 0-.63-.63c-.262-.154-.593-.231-.994-.231a2.19 2.19 0 0 0-.854.161 1.67 1.67 0 0 0-.651.476 2.3 2.3 0 0 0-.427.812c-.098.322-.147.702-.147 1.141l-.819-.252c0-.733.13-1.36.392-1.883a2.86 2.86 0 0 1 1.113-1.211c.48-.285 1.045-.427 1.694-.427.49 0 .907.077 1.253.231a2.5 2.5 0 0 1 .861.616 2.93 2.93 0 0 1 .539.854c.13.313.221.632.273.959a5.36 5.36 0 0 1 .084.917V30h-1.26zm-5.39 0V19.92h1.12v5.565h.14V30h-1.26zm10.618.21c-.564 0-1.038-.103-1.421-.308s-.665-.485-.861-.826a2.25 2.25 0 0 1-.287-1.12c0-.397.075-.74.224-1.029.154-.294.369-.537.644-.728s.605-.35.987-.462a11.34 11.34 0 0 1 1.204-.252l1.358-.203 1.281-.175-.448.259c.014-.672-.121-1.169-.406-1.491s-.765-.483-1.456-.483c-.457 0-.858.105-1.204.315-.34.205-.581.541-.721 1.008l-1.183-.357c.182-.663.535-1.183 1.057-1.561s1.211-.567 2.065-.567c.686 0 1.274.124 1.764.371a2.15 2.15 0 0 1 1.064 1.106c.108.233.175.488.203.763s.042.555.042.854V30h-1.106v-1.813l.259.168c-.284.611-.683 1.073-1.197 1.386-.508.313-1.129.469-1.862.469zm.189-1.043c.448 0 .836-.079 1.162-.238.332-.163.598-.376.798-.637s.332-.555.392-.868c.07-.233.108-.492.112-.777l.014-.665.434.189-1.197.161-1.113.168c-.35.056-.665.124-.945.203-.205.065-.399.149-.581.252-.177.103-.322.236-.434.399-.107.159-.161.357-.161.595a1.21 1.21 0 0 0 .154.588c.108.187.271.338.49.455.224.117.516.175.875.175zm9.758.833c-.448.089-.891.124-1.33.105-.434-.014-.821-.1-1.162-.259s-.599-.415-.777-.756c-.149-.299-.231-.6-.245-.903l-.014-1.043V20.34h1.246v6.748l.007.791c.01.219.059.408.147.567.168.299.434.474.798.525s.812.037 1.33-.042V30zm-5.061-6.531V22.44h5.061v1.029h-5.061z" fill="#475367"/><defs><linearGradient id="A" x1="71" y1="1" x2="71" y2="49" gradientUnits="userSpaceOnUse"><stop stop-color="#e4e7ec"/><stop offset="1" stop-color="#fff"/></linearGradient></defs></svg>
